packages/core/src/svgs/tokens/mono/ZAT.svg

<svg width="24" height="24" viewBox="0 0 24 24" fill="none" xmlns="http://www.w3.org/2000/svg">
<path d="M14.7468 2V5.66463C14.7409 6.41167 12.288 6.9293 11.8115 6.85284C11.1645 6.74696 10.5527 6.45285 9.94101 6.20579C9.85276 6.16462 9.7645 6.1352 9.67035 6.11757C9.29977 6.02933 9.30567 5.52933 9.30567 5.2117V2H14.7468Z" fill="white"/>
<path d="M8.73446 2.35908C8.79329 2.35321 8.81682 2.40615 8.79329 2.51791C8.77564 2.57674 8.76977 2.63555 8.76977 2.67673V5.90608C8.71094 6.00019 8.66389 6.08254 8.5933 6.16489C7.92263 6.8921 7.2501 7.61758 6.57569 8.34133C6.57071 8.34307 6.56536 8.34344 6.56018 8.34241C6.55501 8.34138 6.55021 8.33897 6.54628 8.33544L6.54039 8.31779C6.51687 8.02369 6.49922 7.72369 6.49334 7.42958C6.49283 7.21435 6.45296 7.00105 6.37569 6.80018C6.28158 6.57078 6.11687 6.38842 5.88747 6.25313L5.12278 5.80608C5.09861 5.79162 5.07841 5.77142 5.06396 5.74726V5.71785H5.06983L5.08748 5.71196L8.73446 2.35908ZM15.2932 2.37086C15.352 2.40026 15.4108 2.42967 15.4461 2.47674L18.9695 5.71196C19.0049 5.74726 18.999 5.77079 18.9578 5.79431C18.5696 6.00019 17.9167 6.31195 17.7401 6.77077C17.6166 7.08841 17.5638 7.41781 17.5754 7.77074C17.5872 7.94721 17.5579 8.10015 17.5284 8.25896C17.5057 8.25331 17.4853 8.24103 17.4696 8.22368C17.1106 7.84559 16.7459 7.473 16.3754 7.10606C15.9666 6.70119 15.5927 6.26237 15.2579 5.79431L15.2873 5.4708C15.2944 5.21987 15.2984 4.96888 15.2991 4.71787C15.3069 3.93356 15.303 3.14916 15.2873 2.36497L15.2932 2.37086ZM5.88158 14.7059C5.88158 14.7353 5.86982 14.7648 5.85217 14.7942C5.8349 14.8189 5.81017 14.8374 5.78159 14.8471L4.99337 15.0824C4.98738 15.0726 4.9815 15.0628 4.97572 15.053C4.96984 15.0471 4.94043 15.0353 4.94043 15.0235V6.48843C4.9463 6.46489 4.94043 6.44725 4.94043 6.44725H4.95808L4.9816 6.44136C5.26983 6.559 5.49336 6.71194 5.64629 6.91194C5.83453 7.14135 5.88158 7.40605 5.88158 7.70604V14.7059ZM19.0225 6.48843C19.0461 6.50606 19.0578 6.52371 19.0578 6.559V14.9941C19.0578 15.0588 19.0225 15.0883 18.9637 15.0765C18.7742 15.0549 18.5928 14.9884 18.4342 14.8824C18.1755 14.7059 18.1343 14.3176 18.1402 14.0059V8.58838C18.1343 8.17663 18.1402 7.78251 18.146 7.41193C18.1492 7.33026 18.1692 7.25013 18.2049 7.17663L18.3225 6.95312C18.4637 6.71783 18.6931 6.63548 18.9167 6.5296L19.0225 6.4943V6.48843ZM11.0226 7.27075C11.0344 7.2884 11.058 7.29429 11.0815 7.2884C11.0906 7.28376 11.1007 7.28133 11.1109 7.28133C11.1212 7.28133 11.1312 7.28376 11.1404 7.2884C11.1756 7.30605 11.1991 7.33546 11.2109 7.37664C10.1756 7.3884 9.14035 7.3884 8.11683 7.37664C8.10507 7.37664 8.09331 7.37075 8.08743 7.35311L8.72859 6.68841C8.74789 6.66824 8.77235 6.65374 8.79932 6.64648C8.82627 6.63922 8.85471 6.63948 8.88153 6.64724L11.0226 7.27075ZM15.9579 7.38251H13.2697C13.2579 7.36488 13.2638 7.34723 13.2756 7.3237L15.1991 6.64135C15.2168 6.63586 15.2357 6.63572 15.2535 6.64095C15.2713 6.64618 15.2872 6.65656 15.2991 6.67077L15.9579 7.37664V7.38251Z" fill="white"/>
<path d="M4.35371 12.5879V12.5997C4.35069 12.6032 4.34648 12.6052 4.34195 12.6056H4.33017C3.94504 12.515 3.60499 12.2897 3.37137 11.9703C3.27978 11.8071 3.20866 11.6333 3.15962 11.4527C3.04197 10.9821 2.90668 10.5175 2.75374 10.0586C2.42433 9.05863 2.61845 8.07041 3.04785 7.12926C3.061 7.10089 3.08063 7.07601 3.10514 7.05659C3.12967 7.03718 3.1584 7.0238 3.18903 7.0175C3.54196 6.92926 3.93607 6.94691 4.30665 6.91162C4.33017 6.91162 4.35371 6.92338 4.35371 6.9528V12.5938V12.5879ZM21.3005 10.3057L21.2122 10.6351C21.0004 11.4174 20.4888 12.2703 19.671 12.6233C19.6684 12.6248 19.6654 12.6257 19.6622 12.6257C19.6592 12.6257 19.656 12.6248 19.6534 12.6233C19.6508 12.6211 19.649 12.6184 19.6479 12.6152C19.6468 12.6122 19.6467 12.6088 19.6475 12.6056V7.97041C19.671 7.7116 19.6064 7.40573 19.7652 7.24103C20.0887 6.89986 20.5534 6.96456 20.9886 6.99985C21.0063 6.99985 21.024 7.01161 21.0298 7.02926C21.424 8.09983 21.5122 9.18805 21.3005 10.3057ZM8.08893 7.35279C8.08893 7.37043 8.10657 7.37632 8.11833 7.37632C9.14185 7.38808 10.1771 7.38808 11.2124 7.37632C11.7065 7.43514 12.2006 7.45278 12.7066 7.43514C12.7535 7.43514 12.8476 7.41749 12.9889 7.39397C13.0829 7.37632 13.1771 7.37043 13.2712 7.38219H15.9594C15.9417 7.38219 15.9476 7.37043 15.9829 7.35279L16.8888 8.34688L16.4299 7.8763C16.4205 7.86779 16.4092 7.86131 16.3971 7.85726C16.3849 7.85323 16.3721 7.85169 16.3594 7.85277H7.65364C7.636 7.85277 7.63011 7.85277 7.63011 7.82925L8.08893 7.35279Z" fill="white"/>
<path d="M7.65198 7.85303H16.3577C16.3871 7.85303 16.4107 7.85892 16.4283 7.88244L16.8871 8.34714C16.8871 8.36479 16.8989 8.38242 16.9165 8.40007C16.9095 8.40702 16.9017 8.41296 16.893 8.41772C16.8852 8.4195 16.8772 8.4195 16.8694 8.41772H7.19318C7.17553 8.41772 7.152 8.41184 7.1167 8.38831C7.13111 8.37953 7.14322 8.36742 7.152 8.35302L7.65198 7.85303Z" fill="white"/>
<path d="M7.19957 8.38843C7.23487 8.41195 7.2584 8.42372 7.28192 8.42372H16.7935L16.823 8.41784L16.8465 8.40019C16.8642 8.40019 16.8758 8.40019 16.8876 8.41195L17.2641 8.82371C17.2935 8.85312 17.2994 8.88254 17.2817 8.90019H6.74077C6.729 8.90019 6.729 8.90019 6.729 8.88842L7.19957 8.38843Z" fill="white"/>
<path d="M17.2941 8.90015V9.42953H6.70605V8.90015H17.2941Z" fill="white"/>
<path d="M6.70605 9.42944H17.2941V9.91765H6.70605V9.42944Z" fill="white"/>
<path d="M6.70605 9.91748H17.2941V10.5351H6.70605V9.91748Z" fill="white"/>
<path d="M6.70605 10.5352H17.2941V11.0176H6.70605V10.5352Z" fill="white"/>
<path d="M6.70605 11.0178H10.8236L10.7412 11.1354L10.3531 11.5825C10.328 11.611 10.2972 11.6342 10.2629 11.6504C10.2285 11.6666 10.1911 11.6755 10.1531 11.6766H6.70605V11.0178ZM13.1647 11.0178H17.2941V11.6648H14.0118C13.9529 11.6648 13.9001 11.6648 13.8412 11.653C13.8208 11.6493 13.8022 11.639 13.7882 11.6237L13.3589 11.1354C13.3379 11.1313 13.318 11.1234 13.3 11.1118C13.2804 11.0943 13.2626 11.0745 13.2471 11.0531C13.2254 11.0309 13.1957 11.0182 13.1647 11.0178Z" fill="white"/>
<path d="M17.6401 12.9881C17.6695 13.5175 17.6636 14.0291 17.6165 14.5469C17.5694 15.0939 17.8519 15.4291 18.3577 15.488C18.5635 15.5115 18.7694 15.5997 18.993 15.7469C19.0048 15.7585 19.0048 15.7644 18.993 15.7762L16.9518 18.282C16.9283 18.3057 16.9165 18.3057 16.9224 18.2702C17.0033 17.6582 16.8944 17.0362 16.6107 16.488C16.4342 16.1586 16.2401 15.8351 16.0284 15.5174C15.7049 15.0057 15.7989 14.4292 16.0989 13.9292C16.1872 13.788 16.3637 13.6057 16.6283 13.3821C16.9666 13.1057 17.3 12.8234 17.6283 12.5352L17.6342 12.5411V12.9881H17.6401ZM5.84029 15.4645C6.25205 15.288 6.46381 14.9527 6.46969 14.4763C6.46969 14.1822 6.45793 13.8644 6.42264 13.5175C6.40101 13.2607 6.42287 13.0022 6.48734 12.7527C6.49092 12.7506 6.49497 12.7495 6.4991 12.7495C6.50323 12.7495 6.5073 12.7506 6.51086 12.7527C6.86968 12.9292 7.21085 13.141 7.52849 13.3821C8.07554 13.7998 8.36377 14.3763 8.16378 15.0762C7.99908 15.6645 7.64615 16.135 7.3285 16.6291C7.18733 16.8527 7.11674 17.135 7.11086 17.3998C7.10275 17.6214 7.05699 17.8404 6.97557 18.0468C6.97007 18.0521 6.96267 18.0552 6.95499 18.0552C6.94729 18.0552 6.93989 18.0521 6.9344 18.0468L4.99325 15.6821C4.96973 15.6468 4.9756 15.635 5.01678 15.635C5.29913 15.635 5.5756 15.5763 5.84029 15.4586V15.4645Z" fill="white"/>
<path d="M14.9406 13.7997V15.4761L15.4818 17.0937C15.523 17.1526 15.5289 17.2114 15.5289 17.2819V19.0584H8.47021V17.382C8.47021 17.2762 8.5055 17.1467 8.56433 17.0526L9.03491 15.4173C9.06431 15.3703 9.05844 15.3114 9.05844 15.2585V14.0056C9.05844 13.9526 9.09961 13.8997 9.12902 13.8586L10.0702 12.6586C10.079 12.644 10.091 12.6317 10.1052 12.6226C10.1195 12.6134 10.1357 12.6077 10.1526 12.6056C10.2407 12.6056 10.3173 12.5879 10.3997 12.5879H13.9936C14.0054 12.5879 14.0113 12.6056 14.0172 12.6056L14.0289 12.6233L14.9406 13.7997Z" fill="white"/>
<path d="M11.4704 14.9235L10.7174 14.5293V14.5234L10.7115 14.5118L10.7056 13.7882V13.7765C10.7056 13.7717 10.7075 13.7673 10.7108 13.764C10.7141 13.7607 10.7186 13.7588 10.7233 13.7588C10.728 13.7588 10.7324 13.7607 10.7358 13.764C10.7391 13.7673 10.7409 13.7717 10.7409 13.7765L11.4997 14.894C11.5044 14.8956 11.5082 14.8989 11.5104 14.9033C11.5126 14.9079 11.5131 14.9129 11.5115 14.9176C11.5099 14.9223 11.5066 14.9261 11.5022 14.9283C11.4977 14.9305 11.4926 14.9309 11.4879 14.9294H11.4761L11.4704 14.9235ZM13.3938 13.7765L13.3879 14.5118V14.5234H13.3761L12.6115 14.9235H12.5997C12.5961 14.9221 12.593 14.9198 12.5909 14.9166C12.5887 14.9135 12.5877 14.9096 12.5879 14.9058V14.894L13.3526 13.7647H13.3644C13.3676 13.7618 13.3719 13.7602 13.3761 13.7602C13.3805 13.7602 13.3846 13.7618 13.3879 13.7647V13.7765H13.3938ZM15.429 19.7058C15.2115 20.2527 15.0172 20.788 14.782 21.3233C14.7173 21.4763 14.6055 21.6351 14.4467 21.6763C12.8585 22.0704 11.1938 22.1586 9.67621 21.6351C9.3468 21.5175 9.17622 21.1645 9.04682 20.8351C8.89388 20.447 8.72918 20.0646 8.56448 19.6881C8.55271 19.6646 8.55859 19.6469 8.58213 19.6469H15.4173L15.429 19.6646C15.4322 19.6709 15.4338 19.6781 15.4338 19.6852C15.4338 19.6923 15.4322 19.6993 15.429 19.7058Z" fill="white"/>
</svg>

<svg xmlns="http://www.w3.org/2000/svg" width="24" height="24" fill="none" viewBox="0 0 24 24">
    <path fill="#fff" d="M14.747 2v3.665c-.006.747-2.459 1.264-2.935 1.188-.647-.106-1.26-.4-1.871-.647a1 1 0 0 0-.27-.088c-.371-.089-.365-.589-.365-.906V2zm-6.013.36c.06-.007.083.046.06.158a.6.6 0 0 0-.024.159v3.23c-.06.093-.106.176-.177.258Q7.588 7.256 6.576 8.34a.03.03 0 0 1-.03-.006l-.006-.017a15 15 0 0 1-.047-.888c0-.216-.04-.429-.117-.63a1.13 1.13 0 0 0-.489-.547l-.764-.447a.2.2 0 0 1-.059-.059v-.03h.006l.017-.005zm6.56.01c.058.03.117.06.152.107l3.524 3.235c.035.035.029.059-.012.082-.388.206-1.041.518-1.218.977a2.5 2.5 0 0 0-.165 1c.012.176-.017.33-.047.488a.1.1 0 0 1-.058-.035q-.54-.567-1.095-1.118a10 10 0 0 1-1.117-1.312l.03-.323q.01-.377.011-.753.012-1.176-.012-2.353zM5.881 14.707q-.001.045-.03.088a.14.14 0 0 1-.07.053l-.789.235-.017-.029c-.006-.006-.036-.018-.036-.03V6.489c.006-.023 0-.04 0-.04h.018l.024-.007c.288.118.511.27.664.47.189.23.236.495.236.795zm13.14-8.218a.08.08 0 0 1 .036.071v8.435c0 .065-.035.094-.094.082a1.2 1.2 0 0 1-.53-.194c-.259-.176-.3-.564-.294-.876V8.588c-.006-.411 0-.805.006-1.176a.6.6 0 0 1 .059-.235l.118-.224c.14-.235.37-.318.594-.423l.105-.036zm-8 .783c.012.017.036.023.06.017a.07.07 0 0 1 .058 0 .14.14 0 0 1 .07.089c-1.034.011-2.07.011-3.093 0q-.02.001-.03-.024l.642-.665a.15.15 0 0 1 .153-.04zm4.936.112H13.27c-.012-.018-.006-.036.006-.06l1.923-.682a.09.09 0 0 1 .1.03l.659.706z"/>
    <path fill="#fff" d="M4.354 12.588v.012a.02.02 0 0 1-.012.006H4.33a1.66 1.66 0 0 1-.959-.636 2.3 2.3 0 0 1-.211-.517q-.177-.705-.406-1.394c-.33-1-.136-1.989.294-2.93a.2.2 0 0 1 .141-.111c.353-.089.747-.071 1.118-.106.023 0 .047.011.047.04v5.642zM21.3 10.306l-.089.33c-.212.781-.723 1.634-1.541 1.987a.02.02 0 0 1-.018 0l-.005-.008V7.97c.023-.258-.042-.564.117-.729.324-.341.788-.276 1.224-.241.017 0 .035.012.04.03a6.04 6.04 0 0 1 .271 3.276M8.089 7.353c0 .017.018.023.03.023 1.023.012 2.058.012 3.093 0 .495.06.989.077 1.495.06.046 0 .14-.019.282-.042a1 1 0 0 1 .282-.012h2.688q-.027-.002.024-.03l.906.995-.46-.47a.1.1 0 0 0-.07-.024H7.654c-.018 0-.024 0-.024-.024z"/>
    <path fill="#fff" d="M7.652 7.853h8.706c.03 0 .053.006.07.03l.46.464q0 .027.028.053a.1.1 0 0 1-.023.018h-9.7c-.017 0-.041-.006-.076-.03a.1.1 0 0 0 .035-.035z"/>
    <path fill="#fff" d="M7.2 8.388c.035.024.058.036.082.036h9.512l.029-.006.023-.018c.018 0 .03 0 .042.012l.376.412c.03.03.035.059.018.076H6.74c-.012 0-.012 0-.012-.012zm10.094.512v.53H6.706V8.9zm-10.588.53h10.588v.488H6.706z"/>
    <path fill="#fff" d="M6.706 9.917h10.588v.618H6.706zm0 .618h10.588v.483H6.706zm0 .483h4.118l-.083.117-.388.447a.28.28 0 0 1-.2.095H6.706zm6.459 0h4.13v.647h-3.283c-.06 0-.112 0-.17-.012a.1.1 0 0 1-.054-.03l-.43-.488a.2.2 0 0 1-.058-.023.4.4 0 0 1-.053-.059.12.12 0 0 0-.082-.035m4.475 1.97c.03.53.024 1.041-.024 1.559-.047.547.236.882.742.941.206.024.411.112.635.259.012.011.012.017 0 .03l-2.041 2.505c-.024.024-.036.024-.03-.012a3 3 0 0 0-.311-1.782q-.265-.495-.583-.97c-.323-.512-.23-1.089.07-1.589q.134-.211.53-.547a37 37 0 0 0 1-.847l.006.006v.447zm-11.8 2.476c.412-.176.624-.511.63-.988 0-.294-.012-.612-.047-.959-.022-.256 0-.515.064-.764a.02.02 0 0 1 .024 0q.54.265 1.017.63c.548.417.836.993.636 1.693-.165.588-.518 1.059-.835 1.553a1.54 1.54 0 0 0-.218.77 2 2 0 0 1-.135.648.03.03 0 0 1-.021.008.03.03 0 0 1-.02-.008l-1.942-2.365c-.023-.035-.017-.047.024-.047q.425 0 .823-.176zm9.1-1.664v1.676l.542 1.618a.3.3 0 0 1 .047.188v1.776H8.47v-1.676c0-.106.035-.235.094-.33l.47-1.635c.03-.047.024-.106.024-.159v-1.252c0-.053.042-.106.071-.147l.941-1.2a.11.11 0 0 1 .083-.053c.088 0 .164-.018.247-.018h3.594c.011 0 .017.018.023.018l.012.017z"/>
    <path fill="#fff" d="m11.47 14.924-.753-.395v-.006l-.006-.011-.005-.724v-.011q0-.008.005-.013a.02.02 0 0 1 .025 0 .02.02 0 0 1 .005.013l.759 1.117a.02.02 0 0 1 .012.024.02.02 0 0 1-.01.01.02.02 0 0 1-.014.001h-.012zm1.924-1.147-.006.735v.011h-.012l-.764.4H12.6l-.01-.006-.002-.011v-.012l.765-1.13h.011a.02.02 0 0 1 .024 0v.013zm2.035 5.929c-.218.547-.412 1.082-.647 1.617-.065.153-.177.312-.335.353-1.588.394-3.253.483-4.77-.04-.33-.119-.5-.471-.63-.8a33 33 0 0 0-.483-1.148c-.011-.023-.005-.041.018-.041h6.835l.012.018a.05.05 0 0 1 0 .04"/>
</svg>
